; generated by PrusaSlicer 2.2.0+ on 2022-03-26 at 08:57:50 UTC

; 

; external perimeters extrusion width = 0.45mm
; perimeters extrusion width = 0.45mm
; infill extrusion width = 0.45mm
; solid infill extrusion width = 0.45mm
; top infill extrusion width = 0.45mm
; support material extrusion width = 0.38mm
; first layer extrusion width = 0.42mm

M201 X500 Y500 Z100 E5000 ; sets maximum accelerations, mm/sec^2
M203 X500 Y500 Z10 E60 ; sets maximum feedrates, mm/sec
M204 P500 R1000 T500 ; sets acceleration (P, T) and retract acceleration (R), mm/sec^2
M205 X8.00 Y8.00 Z0.40 E5.00 ; sets the jerk limits, mm/sec
M205 S0 T0 ; sets the minimum extruding and travel feed rate, mm/sec
M107
G90 ; use absolute coordinates
M83 ; extruder relative mode
M104 S215 ; set extruder temp
M140 S65 ; set bed temp
M190 S65 ; wait for bed temp
M109 S215 ; wait for extruder temp
G28 ; home all
G1 Z2 F240
G1 X2 Y10 F3000
G1 Z0.28 F240
G92 E0.0
G1 Y190 E15.0 F1500.0 ; intro line
G1 X2.3 F5000
G1 Y10 E30 F1200.0 ; intro line
G92 E0.0
G21 ; set units to millimeters
G90 ; use absolute coordinates
M83 ; use relative distances for extrusion
; Filament gcode
;BEFORE_LAYER_CHANGE
;0.2


G1 E-5.00000 F3600.00000
G1 Z0.200 F9000.000
;AFTER_LAYER_CHANGE
;0.2
G1 X66.999 Y72.517
G1 E5.00000 F2400.00000
G1 F1200.000
G1 X67.728 Y72.097 E0.02638
G1 X68.519 Y71.891 E0.02564
G1 X119.494 Y66.684 E1.60661
G1 X143.814 Y66.861 E0.76255
G1 X144.568 Y67.050 E0.02437
G1 X145.221 Y67.472 E0.02437
G1 X145.701 Y68.078 E0.02426
G1 X145.962 Y68.811 E0.02437
G1 X145.998 Y135.965 E2.10558
G1 X142.435 Y192.382 E1.77243
G1 X142.266 Y193.121 E0.02378
G1 X141.916 Y193.717 E0.02166
G1 X141.407 Y194.189 E0.02178
G1 X140.786 Y194.492 E0.02166
G1 X140.104 Y194.605 E0.02166
G1 X68.555 Y194.605 E2.24337
G1 X67.668 Y194.430 E0.02837
G1 X67.069 Y194.077 E0.02178
G1 X66.598 Y193.567 E0.02178
G1 X66.297 Y192.945 E0.02166
G1 X66.186 Y192.260 E0.02178
G1 X65.792 Y129.980 E1.95276
G1 X65.792 Y74.965 E1.72496
G1 X65.849 Y74.386 E0.01826
G1 X66.016 Y73.819 E0.01853
G1 X66.436 Y73.083 E0.02657
G1 X66.957 Y72.560 E0.02314
G1 E-3.50000 F3600.00000
G1 F7200.000
G1 X67.728 Y72.097 E-0.42719
G1 X68.519 Y71.891 E-0.38840
G1 X69.795 Y71.760 E-0.60941
G1 E-0.07500 F3600.00000
G1 X119.489 Y69.061 F9000.000
G1 E5.00000 F2400.00000
G1 F1200.000
G1 X119.489 Y74.083 E0.15745
G1 X120.243 Y74.083 E0.02365
G1 X120.243 Y69.231 E0.15213
G1 X120.998 Y69.231 E0.02365
G1 X120.998 Y74.083 E0.15213
G1 X121.752 Y74.083 E0.02365
G1 X121.752 Y69.231 E0.15213
G1 X122.506 Y69.231 E0.02365
G1 X122.506 Y74.083 E0.15213
G1 X123.260 Y74.083 E0.02365
G1 X123.260 Y69.231 E0.15213
G1 X124.014 Y69.231 E0.02365
G1 X124.014 Y74.160 E0.15456
G1 X124.220 Y74.287 E0.00757
G1 X124.373 Y74.449 E0.00698
G1 X124.494 Y74.679 E0.00816
G1 X124.543 Y74.920 E0.00772
G1 X124.546 Y79.839 E0.15423
G1 X124.768 Y79.839 E0.00697
G1 X124.768 Y69.231 E0.33261
G1 X125.523 Y69.231 E0.02365
G1 X125.523 Y79.839 E0.33261
G1 X126.277 Y79.839 E0.02365
G1 X126.277 Y69.231 E0.33261
G1 X127.031 Y69.231 E0.02365
G1 X127.031 Y79.839 E0.33261
G1 X127.785 Y79.839 E0.02365
G1 X127.785 Y69.231 E0.33261
G1 X128.539 Y69.231 E0.02365
G1 X128.539 Y79.839 E0.33261
G1 X129.293 Y79.839 E0.02365
G1 X129.293 Y69.231 E0.33261
G1 X130.048 Y69.231 E0.02365
G1 X130.048 Y79.839 E0.33261
G1 X130.802 Y79.839 E0.02365
G1 X130.802 Y69.231 E0.33261
G1 X131.556 Y69.231 E0.02365
G1 X131.556 Y79.839 E0.33261
G1 X132.310 Y79.839 E0.02365
G1 X132.310 Y69.231 E0.33261
G1 X133.064 Y69.231 E0.02365
G1 X133.064 Y80.009 E0.33793
G1 E-3.50000 F3600.00000
G1 F7200.000
G1 X133.064 Y77.009 E-1.42500
G1 E-0.07500 F3600.00000
G1 X124.768 Y85.361 F9000.000
G1 E5.00000 F2400.00000
G1 F1200.000
G1 X124.768 Y107.781 E0.70298
G1 X125.523 Y107.781 E0.02365
G1 X125.523 Y85.530 E0.69766
G1 X126.277 Y85.530 E0.02365
G1 X126.277 Y107.781 E0.69766
G1 X127.031 Y107.781 E0.02365
G1 X127.031 Y85.530 E0.69766
G1 X127.785 Y85.530 E0.02365
G1 X127.785 Y107.781 E0.69766
G1 X128.539 Y107.781 E0.02365
G1 X128.539 Y85.530 E0.69766
G1 X129.293 Y85.530 E0.02365
G1 X129.293 Y107.951 E0.70298
G1 E-3.50000 F3600.00000
G1 F7200.000
G1 X129.293 Y104.951 E-1.42500
G1 E-0.07500 F3600.00000
G1 X124.768 Y108.645 F9000.000
G1 E5.00000 F2400.00000
G1 F1200.000
G1 X124.768 Y119.423 E0.33793
G1 X125.523 Y119.423 E0.02365
G1 X125.523 Y108.815 E0.33261
G1 X126.277 Y108.815 E0.02365
G1 X126.277 Y119.423 E0.33261
G1 X127.031 Y119.423 E0.02365
G1 X127.031 Y108.815 E0.33261
G1 X127.785 Y108.815 E0.02365
G1 X127.785 Y119.423 E0.33261
G1 X128.539 Y119.423 E0.02365
G1 X128.539 Y108.815 E0.33261
G1 X129.293 Y108.815 E0.02365
G1 X129.293 Y119.593 E0.33793
G1 E-3.50000 F3600.00000
G1 F7200.000
G1 X129.293 Y116.593 E-1.42500
G1 E-0.07500 F3600.00000
G1 X119.489 Y130.701 F9000.000
G1 E5.00000 F2400.00000
G1 F1200.000
G1 X119.489 Y135.723 E0.15745
G1 X120.243 Y135.723 E0.02365
G1 X120.243 Y130.871 E0.15213
G1 X120.998 Y130.871 E0.02365
G1 X120.998 Y135.723 E0.15213
G1 X121.752 Y135.723 E0.02365
G1 X121.752 Y130.871 E0.15213
G1 X122.506 Y130.871 E0.02365
G1 X122.506 Y135.723 E0.15213
G1 X123.260 Y135.723 E0.02365
G1 X123.260 Y130.871 E0.15213
G1 X123.746 Y130.865 E0.01523
G1 X124.014 Y130.794 E0.00871
G1 X124.014 Y135.723 E0.15455
G1 X124.768 Y135.723 E0.02365
G1 X124.768 Y125.115 E0.33261
G1 X125.523 Y125.115 E0.02365
G1 X125.523 Y135.723 E0.33261
G1 X126.277 Y135.723 E0.02365
G1 X126.277 Y125.115 E0.33261
G1 X127.031 Y125.115 E0.02365
G1 X127.031 Y135.723 E0.33261
G1 X127.785 Y135.723 E0.02365
G1 X127.785 Y125.115 E0.33261
G1 X128.539 Y125.115 E0.02365
G1 X128.539 Y135.723 E0.33261
G1 X129.293 Y135.723 E0.02365
G1 X129.293 Y125.115 E0.33261
G1 X130.048 Y125.115 E0.02365
G1 X130.048 Y135.723 E0.33261
G1 X130.802 Y135.723 E0.02365
G1 X130.802 Y125.115 E0.33261
G1 X131.556 Y125.115 E0.02365
G1 X131.556 Y135.723 E0.33261
G1 X132.310 Y135.723 E0.02365
G1 X132.310 Y125.115 E0.33261
G1 X133.064 Y125.115 E0.02365
G1 X133.064 Y135.723 E0.33261
G1 X133.818 Y135.723 E0.02365
G1 X133.818 Y69.231 E2.08481
G1 X134.572 Y69.231 E0.02365
G1 X134.572 Y135.723 E2.08481
G1 X135.327 Y135.723 E0.02365
G1 X135.327 Y69.231 E2.08481
G1 X136.081 Y69.231 E0.02365
G1 X136.081 Y135.723 E2.08481
G1 X136.835 Y135.723 E0.02365
G1 X136.835 Y69.231 E2.08481
G1 X137.589 Y69.231 E0.02365
G1 X137.589 Y135.723 E2.08481
G1 X138.343 Y135.723 E0.02365
G1 X138.343 Y69.231 E2.08481
G1 X139.097 Y69.231 E0.02365
G1 X139.097 Y135.723 E2.08481
G1 X139.852 Y135.723 E0.02365
G1 X139.852 Y69.231 E2.08481
G1 X140.606 Y69.231 E0.02365
G1 X140.606 Y135.723 E2.08481
G1 X141.360 Y135.723 E0.02365
G1 X141.360 Y69.231 E2.08481
G1 X142.114 Y69.231 E0.02365
G1 X142.114 Y135.723 E2.08481
G1 X142.868 Y135.723 E0.02365
G1 X142.868 Y69.231 E2.08481
G1 X143.622 Y69.231 E0.02365
G1 X143.622 Y135.893 E2.09013
G1 E-3.50000 F3600.00000
G1 F7200.000
G1 X143.622 Y132.893 E-1.42500
G1 E-0.07500 F3600.00000
G1 X123.500 Y129.825 F9000.000
G1 E5.00000 F2400.00000
G1 F1200.000
G1 X69.054 Y129.825 E1.70714
G1 X69.054 Y75.128 E1.71498
G1 X123.500 Y75.129 E1.70714
G1 X123.500 Y129.765 E1.71307
G1 X123.846 Y130.084 F9000.000
G1 F1200.000
G1 X123.811 Y130.130 E0.00181
G1 X123.730 Y130.184 E0.00304
G1 X123.632 Y130.202 E0.00313
G1 X68.922 Y130.202 E1.71541
G1 X68.824 Y130.184 E0.00313
G1 X68.743 Y130.130 E0.00304
G1 X68.708 Y130.084 E0.00181
G1 X68.676 Y129.952 E0.00426
G1 X68.676 Y75.002 E1.72292
G1 X68.708 Y74.870 E0.00426
G1 X68.743 Y74.823 E0.00181
G1 X68.824 Y74.770 E0.00304
G1 X68.922 Y74.751 E0.00313
G1 X123.644 Y74.752 E1.71579
G1 X123.729 Y74.769 E0.00271
G1 X123.811 Y74.823 E0.00308
G1 X123.846 Y74.870 E0.00181
G1 X123.877 Y75.002 E0.00426
G1 X123.877 Y129.952 E1.72292
G1 X123.860 Y130.026 E0.00237
G1 X123.788 Y130.090 F9000.000
G1 E-3.50000 F3600.00000
G1 F7200.000
G1 X123.811 Y130.130 E-0.05486
G1 X123.730 Y130.184 E-0.04608
G1 X123.632 Y130.202 E-0.04737
G1 X120.944 Y130.202 E-1.27669
G1 E-0.07500 F3600.00000
G1 X69.167 Y128.946 F9000.000
G1 E5.00000 F2400.00000
G1 F1200.000
G1 X69.763 Y129.542 E0.02657
G1 X70.299 Y129.542 E0.01688
G1 X69.336 Y128.580 E0.04288
G1 X69.336 Y128.044 E0.01688
G1 X70.835 Y129.542 E0.06675
G1 X71.370 Y129.542 E0.01688
G1 X69.336 Y127.508 E0.09062
G1 X69.336 Y126.973 E0.01688
G1 X71.906 Y129.542 E0.11449
G1 X72.442 Y129.542 E0.01688
G1 X69.336 Y126.437 E0.13836
G1 X69.336 Y125.901 E0.01688
G1 X72.978 Y129.542 E0.16223
G1 X73.513 Y129.542 E0.01688
G1 X69.336 Y125.365 E0.18610
G1 X69.336 Y124.829 E0.01688
G1 X74.049 Y129.542 E0.20997
G1 X74.585 Y129.542 E0.01688
G1 X69.336 Y124.294 E0.23384
G1 X69.336 Y123.758 E0.01688
G1 X75.121 Y129.542 E0.25771
G1 X75.657 Y129.542 E0.01688
G1 X69.336 Y123.222 E0.28158
G1 X69.336 Y122.686 E0.01688
G1 X76.192 Y129.542 E0.30545
G1 X76.728 Y129.542 E0.01688
G1 X69.336 Y122.151 E0.32932
G1 X69.336 Y121.615 E0.01688
G1 X77.264 Y129.542 E0.35319
G1 X77.800 Y129.542 E0.01688
G1 X69.336 Y121.079 E0.37706
G1 X69.336 Y120.543 E0.01688
G1 X78.336 Y129.542 E0.40093
G1 X78.871 Y129.542 E0.01688
G1 X69.336 Y120.007 E0.42480
G1 X69.336 Y119.472 E0.01688
G1 X79.407 Y129.542 E0.44867
G1 X79.943 Y129.542 E0.01688
G1 X69.336 Y118.936 E0.47254
G1 X69.336 Y118.400 E0.01688
G1 X80.479 Y129.542 E0.49641
G1 X81.015 Y129.542 E0.01688
G1 X69.336 Y117.864 E0.52028
G1 X69.336 Y117.328 E0.01688
G1 X81.550 Y129.542 E0.54415
G1 X82.086 Y129.542 E0.01688
G1 X69.336 Y116.793 E0.56802
G1 X69.336 Y116.257 E0.01688
G1 X82.622 Y129.542 E0.59189
G1 X83.158 Y129.542 E0.01688
G1 X69.336 Y115.721 E0.61576
G1 X69.336 Y115.185 E0.01688
G1 X83.694 Y129.542 E0.63963
G1 X84.229 Y129.542 E0.01688
G1 X69.336 Y114.649 E0.66350
G1 X69.336 Y114.114 E0.01688
G1 X84.765 Y129.542 E0.68737
G1 X85.301 Y129.542 E0.01688
G1 X69.336 Y113.578 E0.71124
G1 X69.336 Y113.042 E0.01688
G1 X85.837 Y129.542 E0.73511
G1 X86.372 Y129.542 E0.01688
G1 X69.336 Y112.506 E0.75898
G1 X69.336 Y111.970 E0.01688
G1 X86.908 Y129.542 E0.78285
G1 X87.444 Y129.542 E0.01688
G1 X69.336 Y111.435 E0.80672
G1 X69.336 Y110.899 E0.01688
G1 X87.980 Y129.542 E0.83059
G1 X88.516 Y129.542 E0.01688
G1 X69.336 Y110.363 E0.85446
G1 X69.336 Y109.827 E0.01688
G1 X89.051 Y129.542 E0.87833
G1 X89.587 Y129.542 E0.01688
G1 X69.336 Y109.292 E0.90220
G1 X69.336 Y108.756 E0.01688
G1 X90.123 Y129.542 E0.92607
G1 X90.659 Y129.542 E0.01688
G1 X69.336 Y108.220 E0.94994
G1 X69.336 Y107.684 E0.01688
G1 X91.195 Y129.542 E0.97381
G1 X91.730 Y129.542 E0.01688
G1 X69.336 Y107.148 E0.99768
G1 X69.336 Y106.613 E0.01688
G1 X92.266 Y129.542 E1.02155
G1 X92.802 Y129.542 E0.01688
G1 X69.336 Y106.077 E1.04542
G1 X69.336 Y105.541 E0.01688
G1 X93.338 Y129.542 E1.06929
G1 X93.874 Y129.542 E0.01688
G1 X69.336 Y105.005 E1.09316
G1 X69.336 Y104.469 E0.01688
G1 X94.409 Y129.542 E1.11703
G1 X94.945 Y129.542 E0.01688
G1 X69.336 Y103.934 E1.14091
G1 X69.336 Y103.398 E0.01688
G1 X95.481 Y129.542 E1.16478
G1 X96.017 Y129.542 E0.01688
G1 X69.336 Y102.862 E1.18865
G1 X69.336 Y102.326 E0.01688
G1 X96.553 Y129.542 E1.21252
G1 X97.088 Y129.542 E0.01688
G1 X69.336 Y101.790 E1.23639
G1 X69.336 Y101.255 E0.01688
G1 X97.624 Y129.542 E1.26026
G1 X98.160 Y129.542 E0.01688
G1 X69.336 Y100.719 E1.28413
G1 X69.336 Y100.183 E0.01688
G1 X98.696 Y129.542 E1.30800
G1 X99.231 Y129.542 E0.01688
G1 X69.336 Y99.647 E1.33187
G1 X69.336 Y99.111 E0.01688
G1 X99.767 Y129.542 E1.35574
G1 X100.303 Y129.542 E0.01688
G1 X69.336 Y98.576 E1.37961
G1 X69.336 Y98.040 E0.01688
G1 X100.839 Y129.542 E1.40348
G1 X101.375 Y129.542 E0.01688
G1 X69.336 Y97.504 E1.42735
G1 X69.336 Y96.968 E0.01688
G1 X101.910 Y129.542 E1.45122
G1 X102.446 Y129.542 E0.01688
G1 X69.336 Y96.433 E1.47509
G1 X69.336 Y95.897 E0.01688
G1 X102.982 Y129.542 E1.49896
G1 X103.518 Y129.542 E0.01688
G1 X69.336 Y95.361 E1.52283
G1 X69.336 Y94.825 E0.01688
G1 X104.054 Y129.542 E1.54670
G1 X104.589 Y129.542 E0.01688
G1 X69.336 Y94.289 E1.57057
G1 X69.336 Y93.754 E0.01688
G1 X105.125 Y129.542 E1.59444
G1 X105.661 Y129.542 E0.01688
G1 X69.336 Y93.218 E1.61831
G1 X69.336 Y92.682 E0.01688
G1 X106.197 Y129.542 E1.64218
G1 X106.733 Y129.542 E0.01688
G1 X69.336 Y92.146 E1.66605
G1 X69.336 Y91.610 E0.01688
G1 X107.268 Y129.542 E1.68992
G1 X107.804 Y129.542 E0.01688
G1 X69.336 Y91.075 E1.71379
G1 X69.336 Y90.539 E0.01688
G1 X108.340 Y129.542 E1.73766
G1 X108.876 Y129.542 E0.01688
G1 X69.336 Y90.003 E1.76153
G1 X69.336 Y89.467 E0.01688
G1 X109.412 Y129.542 E1.78540
G1 X109.947 Y129.542 E0.01688
G1 X69.336 Y88.931 E1.80927
G1 X69.336 Y88.396 E0.01688
G1 X110.483 Y129.542 E1.83314
G1 X111.019 Y129.542 E0.01688
G1 X69.336 Y87.860 E1.85701
G1 X69.336 Y87.324 E0.01688
G1 X111.555 Y129.542 E1.88088
G1 X112.090 Y129.542 E0.01688
G1 X69.336 Y86.788 E1.90475
G1 X69.336 Y86.252 E0.01688
G1 X112.626 Y129.542 E1.92862
G1 X113.162 Y129.542 E0.01688
G1 X69.336 Y85.717 E1.95249
G1 X69.336 Y85.181 E0.01688
G1 X113.698 Y129.542 E1.97636
G1 X114.234 Y129.542 E0.01688
G1 X69.336 Y84.645 E2.00023
G1 X69.336 Y84.109 E0.01688
G1 X114.769 Y129.542 E2.02410
G1 X115.305 Y129.542 E0.01688
G1 X69.336 Y83.574 E2.04797
G1 X69.336 Y83.038 E0.01688
G1 X115.841 Y129.542 E2.07184
G1 X116.377 Y129.542 E0.01688
G1 X69.336 Y82.502 E2.09571
G1 X69.336 Y81.966 E0.01688
G1 X116.913 Y129.542 E2.11958
G1 X117.448 Y129.542 E0.01688
G1 X69.336 Y81.430 E2.14345
G1 X69.336 Y80.895 E0.01688
G1 X117.984 Y129.542 E2.16732
G1 X118.520 Y129.542 E0.01688
G1 X69.336 Y80.359 E2.19119
G1 X69.336 Y79.823 E0.01688
G1 X119.056 Y129.542 E2.21506
G1 X119.592 Y129.542 E0.01688
G1 X69.336 Y79.287 E2.23893
G1 X69.336 Y78.751 E0.01688
G1 X120.127 Y129.542 E2.26280
G1 X120.663 Y129.542 E0.01688
G1 X69.336 Y78.216 E2.28667
G1 X69.336 Y77.680 E0.01688
G1 X121.199 Y129.542 E2.31055
G1 X121.735 Y129.542 E0.01688
G1 X69.336 Y77.144 E2.33442
G1 X69.336 Y76.608 E0.01688
G1 X122.271 Y129.542 E2.35829
G1 X122.806 Y129.542 E0.01688
G1 X69.336 Y76.072 E2.38216
G1 X69.336 Y75.537 E0.01688
G1 X123.218 Y129.418 E2.40048
G1 X123.218 Y128.882 E0.01688
G1 X69.747 Y75.411 E2.38219
G1 X70.283 Y75.411 E0.01688
G1 X123.218 Y128.346 E2.35832
G1 X123.218 Y127.810 E0.01688
G1 X70.818 Y75.411 E2.33445
G1 X71.354 Y75.411 E0.01688
G1 X123.218 Y127.275 E2.31058
G1 X123.218 Y126.739 E0.01688
G1 X71.890 Y75.411 E2.28671
G1 X72.426 Y75.411 E0.01688
G1 X123.218 Y126.203 E2.26284
G1 X123.218 Y125.667 E0.01688
G1 X72.962 Y75.411 E2.23897
G1 X73.497 Y75.411 E0.01688
G1 X123.218 Y125.132 E2.21510
G1 X123.218 Y124.596 E0.01688
G1 X74.033 Y75.411 E2.19123
G1 X74.569 Y75.411 E0.01688
G1 X123.218 Y124.060 E2.16736
G1 X123.218 Y123.524 E0.01688
G1 X75.105 Y75.411 E2.14349
G1 X75.641 Y75.411 E0.01688
G1 X123.218 Y122.988 E2.11962
G1 X123.218 Y122.453 E0.01688
G1 X76.176 Y75.411 E2.09575
G1 X76.712 Y75.411 E0.01688
G1 X123.218 Y121.917 E2.07188
G1 X123.218 Y121.381 E0.01688
G1 X77.248 Y75.411 E2.04801
G1 X77.784 Y75.411 E0.01688
G1 X123.218 Y120.845 E2.02414
G1 X123.218 Y120.309 E0.01688
G1 X78.320 Y75.411 E2.00027
G1 X78.855 Y75.411 E0.01688
G1 X123.218 Y119.774 E1.97639
G1 X123.218 Y119.238 E0.01688
G1 X79.391 Y75.411 E1.95252
G1 X79.927 Y75.411 E0.01688
G1 X123.218 Y118.702 E1.92865
G1 X123.218 Y118.166 E0.01688
G1 X80.463 Y75.411 E1.90478
G1 X80.999 Y75.411 E0.01688
G1 X123.218 Y117.630 E1.88091
G1 X123.218 Y117.095 E0.01688
G1 X81.534 Y75.411 E1.85704
G1 X82.070 Y75.411 E0.01688
G1 X123.218 Y116.559 E1.83317
G1 X123.218 Y116.023 E0.01688
G1 X82.606 Y75.411 E1.80930
G1 X83.142 Y75.411 E0.01688
G1 X123.218 Y115.487 E1.78543
G1 X123.218 Y114.951 E0.01688
G1 X83.678 Y75.411 E1.76156
G1 X84.213 Y75.411 E0.01688
G1 X123.218 Y114.416 E1.73769
G1 X123.218 Y113.880 E0.01688
G1 X84.749 Y75.411 E1.71382
G1 X85.285 Y75.411 E0.01688
G1 X123.218 Y113.344 E1.68995
G1 X123.218 Y112.808 E0.01688
G1 X85.821 Y75.411 E1.66608
G1 X86.357 Y75.411 E0.01688
G1 X123.218 Y112.273 E1.64221
G1 X123.218 Y111.737 E0.01688
G1 X86.892 Y75.411 E1.61834
G1 X87.428 Y75.411 E0.01688
G1 X123.218 Y111.201 E1.59447
G1 X123.218 Y110.665 E0.01688
G1 X87.964 Y75.411 E1.57060
G1 X88.500 Y75.412 E0.01688
G1 X123.218 Y110.129 E1.54672
G1 X123.218 Y109.594 E0.01688
G1 X89.035 Y75.412 E1.52285
G1 X89.571 Y75.412 E0.01688
G1 X123.218 Y109.058 E1.49898
G1 X123.218 Y108.522 E0.01688
